X: 17
T: Tell Her I Am
R: jig
M: 6/8
L: 1/8
K: Gmaj
|:~B3 dBG|~B3 dBG|ABA ABA|AGF E2 c|~B3 deg|
age d2 B|cBA GBA|1 GFE D2 A:|2 GFE D3||
efg efg|dBG GBd|e2 a aga|bge e2 d|
efg efg|dBG Gef|gfe gba|gfe d3|
efg efg|dBG GBd|e2 a aga|bge e2 A|
def gba|gfe d2 B|cBA GBA|GFE DBd||
F: https://thesession.org/tunes/161#setting161 - A removed

